!!!!SEGMENT: pl-wtm--r-114-m--pc0_moniuszko-stanislaw--wezwanie-do-mazura-pc0.krn
!!!cenid: 18xx:1668a
!!!COM: Moniuszko, Stanisław
!!!COM-rismid: pe30008351
!!!CDT: 1819/05/05-1872/06/04
!!!CNT: Polish
!!!OTL: Wezwanie do mazura
!!!PDT:
!!!AGN: Secular
!!!SMS-siglum: PL-Wtm
!!!SMS-shelfmark: R 114/M
!!!SMS-shelfwork: W
!!!SMS-variant:
!!!SMS-altvar:
!!!NIFC-rismid: 1001084329
!!!URL-scan: http://repozytorium.nifc.pl/skany/pl-wtm-nut--r114m
!!!ONB-nifc:
**kern	**kern	**dynam	**kern	**text
*group1	*group1	*group1	*	*
*part2	*part2	*part2	*part1	*part1
*I""Fortepian	*I""Fortepian	*	*	*
*staff3	*staff2	*	*staff1	*staff1
*	*	*	*I"Głos	*
*I`pf	*	*	*I`V	*
*clefF4	*clefG2	*	*clefG2	*
*k[b-]	*k[b-]	*	*k[b-]	*
*F:	*F:	*	*F:	*
*M3/4	*M3/4	*	*M3/4	*
=1	=1	=1	=1	=1
!LO:TX:a:t=P:problem:partia fortepianu powinna mieć kreski przez dwie pięciolinie, ale jak wpisuję w system-decoration (g1), to nie wyświetla się nazwa głosu	!	!	!LO:TX:a:i:t=Raźno.	!
!	!	!LO:DY:rj	!LO:TX:a:t=P:problem:w pierwszej linijce omyłkowo przy kluczu bemol cc-	!
8c\L	8cc`\L 8ccc	f	2.r	.
8Bn\J	8bn`\J 8bbn	.	.	.
4c\	4cc`\ 4ccc	.	.	.
4A'\	4a`\ 4aa	sf	.	.
=2	=2	=2	=2	=2
!	!	!	!	!
8qB-/	(8qbb-/	.	.	.
8A\L	8a`\L) 8aa	.	2.r	.
!	!	!	!	!
8G\J	8g`\J 8gg	.	.	.
!	!	!	!	!
4A\	4a`\ 4aa	.	.	.
!	!	!	!	!
4F\	4f`\ 4ff	sf	.	.
=3	=3	=3	=3	=3
8qG/	(8qgg/	.	.	.
8F`\L	8f`/L) 8ff	.	2.r	.
8E`\J	8e`/J 8ee	.	.	.
4F`\	4f`/ 4ff	.	.	.
!	!	!	!	!
4C`\ 4c	4cc`\	sf	.	.
=4	=4	=4	=4	=4
!	!	!	!	!
(8qB-/	8qb-/	.	.	.
8A`\L)	8a`/L	.	2.r	.
!	!	!	!	!
8G`\J	8g`/J	.	.	.
!	!	!	!	!
4A`\	4a`/	.	.	.
!	!	!	!	!
4F`\	4f`/	sf	.	.
.	.	mf	.	.
=5	=5	=5	=5	=5
8AA\L 8C	8F<`>/L 8c	.	8c/	He-
8GG#X\J 8BBn	8F<`>/J 8Bn	.	8Bn/	-że
4AA\ 4C	4F</ 4c	.	4c/	grac-
4AA\ 4C#X	4F</ 4c#X	.	4c#X/	-ko,
!!LO:LB:g=original
=6	=6	=6	=6	=6
8BB-\L 8D	8F</L 8d	.	8d/	Z miejsc
8AA\J 8C#X	8F</J 8c#X	.	8c#X/	pa-
4BB-\ 4D	4F</ 4d	.	4d/	-no-
4AA\ 4Cn	4F#X</ 4d	.	4d/	-wie!
=7	=7	=7	=7	=7
8BB-/L 8D	8G/L 8d	.	8d/	każ-
8AA/J 8C	8e/J	.	8e/	-dy
4GG/ 4BB-	4B-/ 4f	.	4f/	do
4BB-/	4G/ 4d 4g	.	4g/	swej
=8	=8	=8	=8	=8
[4C^/	2A^/ [2c (>2f	.	2f/	da-
4CC/ 4C]	.	.	.	.
4C^/	(8c/L] 8e)	.	8e/	-my!
.	8B-/J)	.	8r	.
=9	=9	=9	=9	=9
8D'\L 8F	8A`/L 8f	.	8f/	Boć
8C#X'\J 8E	8A`/J 8e	.	8e/	brzmi
4D\ 4F	4A`/ 4f	.	4f/	nu-
4AA`</ 4E-X	4c`/ 4f#X	.	4f#X/	-ta
=10	=10	=10	=10	=10
.	8qa/	.	.	.
8BB-'/L 8D	8d'/L 8g	.	8g/	z du-
8AA'/J 8C	8d'/J 8f#X	.	8f#X/	-szy
4BB-'/ 4D	4d'/ 4g	.	4g/	snu-
4FF#X`/ 4F#X	4d'/ 4a	.	4a/	-ta
!!LO:LB:g=original
=11	=11	=11	=11	=11
*	*^	*	*	*
(8GG\L 8G	8b-/L	4d\	.	8b-\	któ-
8A\J	8cc/J	.	.	8cc\	-rą
8G\) 8B-	8dd/	8g\	.	4dd\	my
8r	8r	8ryy	.	.	.
4F\ 4B-	4dd/	4g\	.	4dd\	ko-
=12	=12	=12	=12	=12	=12
*^	*	*	*	*	*
*	*2\right	*	*2\right	*	*2\right	*
[2B-;/	[2E\	(2dd;/	[2g\	.	2dd;\	-cha-
8B-/]	8E\]	8cc/)	8g\]	.	8cc\	-my.
8r	8ryy	8r	8ryy	f	8r	.
*v	*v	*	*	*	*	*
*	*v	*v	*	*	*
=13	=13	=13	=13	=13
8CC/L 8C	8c/L 8e 8cc	.	8cc\	Ptak
8CC/J 8C	8c/J 8e 8cc	.	8cc\	w po-
4DD`/ 4D	4c`/ 4f 4bn	.	4bn\	-wie-
4EE`/ 4E	4c`/ 4g 4b-X	.	4b-X\	-trzu
=14	=14	=14	=14	=14
4FF`/ 4F	4c`/ 4f 4a	.	8a/	ryb-
.	.	.	8a/	-ka
4CC`/ 4C	4B-`/ 4e 4g	.	4g/	w wo-
4FF`/ 4C	4A`/ 4f	.	4f/	-dzie
=15	=15	=15	=15	=15
4BBB-`/ 4BB-	8d/ 8b-	.	8b-\L	naj-
.	8r	.	8dd\J	.
4F\ 4B- 4d	4.f^/ 4.b- 4.ff	.	4ff\	-mi-
4DD'/ 4D	.	.	8ee\	-lej
.	8b-/ 8dd	.	8dd\	pły-
!!LO:LB:g=original
=16	=16	=16	=16	=16
*^	*^	*	*	*
4F\	4FF/	2cc/	4a\	.	2cc\	-wa-
4A\ 4c	4ryy	.	4f\ 4a	.	.	.
4C\ 4G 4c	4ryy	4cc/	4e\ 4g	.	4cc\	-ją,
*v	*v	*	*	*	*	*
*	*v	*v	*	*	*
=17	=17	=17	=17	=17
8FF'/ 8F	8.dd/L	.	8.dd\	nam
8r	.	.	.	.
.	16cc/Jk	.	16cc\	we-
2F\ 2A 2c	(4.a^/	.	4.a/	-so-
.	8f/)	.	8f/	-ło
=18	=18	=18	=18	=18
*	*^	*	*	*
*	*	*	*	*	*^
*	*	*	*	*	*above	*below
4BB-`\ 4B-	(<8ee/L	4f\ 4b-	.	8ee\	gdy	[[kie-
.	8dd/J)	.	.	8dd\	w o-	-dy
4FF#X`>/ 4F#X	4cc/	4e-X\ 4a	.	4cc\	-ko-	w ko-
4GG`>/ 4G	4b-/	4d\ 4g	.	4b-\	-ło	-ło]]
*	*	*	*	*	*v	*v
=19	=19	=19	=19	=19	=19
*^	*	*	*	*	*
8C/	4ryy	8f/ 8a 8c/	8ryy	.	4a/	ma-
8r	.	8r	8ryy	.	.	.
4.G^/	2C\	(4cc/	2c\ 2e	.	4cc^/	-zu-
.	.	8b-/L)	.	.	8b-/	-ra
8B-/	.	8g/J	.	.	8g/	su-
*	*	*v	*v	*	*	*
=20	=20	=20	=20	=20	=20
4A/	4F\	4f/	.	8f/	-wa-
.	.	.	.	8f/	-ją.
.	(8qE/	(8qe/	.	.	.
2ryy	4F\)	4f/)	.	4r	.
.	(8qG/	(8qg/	.	.	.
.	4F\)	4f/)	.	4r	.
*v	*v	*	*	*	*
!!LO:LB:g=original
=21	=21	=21	=21	=21
*k[b-e-]	*k[b-e-]	*	*k[b-e-]	*
.	(8qqe-/	.	.	.
4BBB-\ 4BB-	4f/)	.	4.f/	Gdy
4rCC	4F</ 4B-< 4d 4f	.	.	.
.	.	.	8dd\	wąs
4rCC	4F</ 4B-< 4d 4f	.	8cc\	muś-
.	.	.	8b-\	-niesz
=22	=22	=22	=22	=22
4BBB-\ 4BB-	4r	.	8a\	z dziar-
.	.	.	8b-\	-ską
4rCC	4F</ 4A< 4c 4e- 4f	.	4cc\	mi-
4rCC	4F</ 4A< 4c 4e- 4f	.	4f/	-ną
=23	=23	=23	=23	=23
!	!	!	!LO:TX:a:t=F	!
!	!	!	!LO:TX:t=P:problem:dwa takty = alternatywny fragment zapisany na końcu utworu	!
4BBB-\ 4BB-	4r	.	4.f/	i
.	.	.	.	.
4rCC	4F</ 4B-< 4d 4f	.	.	.
.	.	.	8dd\	gdy
4rCC	4F</ 4B-< 4d 4f	.	8cc\	ży-
.	.	.	8b-\	-ciem
=24	=24	=24	=24	=24
4BBB-\ 4BB-	4r	.	8a\	twarz
.	.	.	8b-\	za-
4rCC	4F</ 4A< 4c 4e- 4f	.	4cc\	-pło-
.	.	.	.	.
4rCC	4F</ 4A< 4c 4e- 4f	.	4f/	-nie
.	.	.	.	.
!!LO:PB:g=original
=25	=25	=25	=25	=25
8DD/ 8D	8B-/ 8f	.	8.f/	dziew-
8r	8r	.	.	.
.	.	.	16f/	-cze
8BBB-/ 8BB-	8d/ 8f 8dd	.	4dd\	w o-
8r	8r	.	.	.
8DD/ 8D	8f/ 8b-	.	4b-\	-ku
8r	8r	.	.	.
=26	=26	=26	=26	=26
*^	*	*	*	*
8E-/ 8EE-/	8ryy	8r	.	8g/	w two-
(8A/	8rEE	(8f#X/	.	8f#X/	-im
4F#X/)	4E-\	4c`/) 4a	.	4a/	wzro-
4G/	4E-\	4c`/ 4g	.	4g/	-ku
*v	*v	*	*	*	*
=27	=27	=27	=27	=27
2.FF/ 2.F	4r	.	4.f/	ca-
.	4A/ 4e- 4f	.	.	.
.	.	.	8a/	-łą
.	4c/ 4e- 4a	.	8cc\	du-
.	.	.	8ee-\	-szą
=28	=28	=28	=28	=28
2.FF/ 2.F#X	4r	.	2dd\	to-
.	4d/ 4a	.	.	.
.	.	.	8qqdd\	.
.	4A/ 4c 4d	.	8d/	-nie.
.	.	.	8r	.
=29	=29	=29	=29	=29
4GG/ 4G	(4.d/	.	8.dd\	Więc
.	.	.	16cc\	o-
4G\ 4B-	.	.	(4b-/	-gni-
.	8b-/L	.	.	.
4B-\ 4d	8a/	.	8a/)	.
.	8g/J)	.	8g/	-ście,
!!LO:LB:g=original
=30	=30	=30	=30	=30
2.A/ 2.AA/	4f#X/	.	8f#X/	Za-
.	.	.	8g/	-ma-
.	4A/ 4d 4f#	.	4a/	-szyś-
.	4A/ 4d 4f#	.	8d/	-ćie
.	.	.	8r	.
=31	=31	=31	=31	=31
2BB-\ 2B-	4r	.	8g/	niech-
.	.	.	8a/	-że
.	4d/ 4g	.	4b-\	su-
4BBB-/ 4BB-	4d/ 4g 4dd	.	4dd\	-ną
=32	=32	=32	=32	=32
*	*^	*	*	*
((2.BBBn/ 2.BBn	2dd/	4f\ 4a-X 4dd	<	2dd\	pa-
.	.	4f\ 4a-	.	.	.
.	4g/	4d\ 4f	[	4dd\	-ry,
*	*v	*v	*	*	*
=33	=33	=33	=33	=33
8CC/L)) 8C	8e-/L 8g 8ee-	mf	8.ee-^\	os-
16r	16r	.	.	.
16C/Jk 16G	16e-/Jk 16dd	.	16dd\	-tro,
2C^/ 2G	2e-^/ 2cc	.	4.cc\	smia-
.	.	.	8g/	-ło,
=34	=34	=34	=34	=34
8DD/L 8D	8d/L 8g 8b- 8dd	.	8.dd\	jak
16r	16r	.	.	.
16D/Jk 16G	16d/Jk 16cc	.	16cc\	przy-
2D\ 2G	2d^/ 2b-	.	4.b-^\	-sta-
.	.	.	8g/	-ło
!!LO:LB:g=original
=35	=35	=35	=35	=35
(8E-`\L 8G	(8g`/L 8cc	.	8cc\	dla
8D`\J 8G	8g`/J 8dd	.	8dd\	nas
4E-`\) 4G	4g`/) 4cc	.	4cc\	Pol-
!	!	!	!	!
(<4En\ [4c	(4g`/ 4b-	.	4b-\	-skiej
=36	=36	=36	=36	=36
*	*^	*	*	*
!	!	!	!LO:HP:t=dimin	!	!
.	8qb-/)	.	>	.	.
4F\) 4c]	8.a/L	2ryy	.	8a/	wia-
.	.	.	.	8a/	-ry.
.	16g#X/Jk	.	.	.	.
4F\ 4c	4a/	.	.	4r	.
4En\ 4c#X	4a/	4gn\	.	4r	.
*	*v	*v	*	*	*
=37	=37	=37	=37	=37
*k[enb-]	*k[enb-]	*	*k[enb-]	*
!	!	!LO:DY:rj	!LO:TX:a:i:t=un poco piu lento.	!
4D\ 4A 4d	4f`/ 4a	p	4.a/	Smu-
4D\ 4A 4d	4f`/ 4a	.	.	.
.	.	.	8ff\	-tno
4D\ 4A 4d	4f`/ 4a	.	8ee\	w klat-
.	.	.	8dd\	-ce
=38	=38	=38	=38	=38
4D\ 4A 4e	4g/ 4a	.	8cc#X\	sło-
.	.	.	8dd\	-wi-
4D\ 4A 4c#X	4e/ 4g 4a	.	4ee\	-ko-
4D\ 4A 4c#	4e/ 4g 4a	.	4a/	-wi
!!LO:LB:g=original
=39	=39	=39	=39	=39
4D\ 4A 4d	4f/ 4a	.	8.dd\	bez
.	.	.	16cc#X\	zie-
*rep	*rep	*	*	*
4D\yy 4A 4d	4f/yy 4a	.	4dd\	-le-
4D\yy 4A 4d	4f/yy 4a	.	4a/	-ni
*Xrep	*Xrep	*	*	*
=40	=40	=40	=40	=40
[2G;\ [2d	(2a;/ (>2cc	.	2ccn;\	ga-
!	!	!	!LO:TX:a:i:t=tempo Imo energico	!
8G\] 8d]	8g/) 8b-)	.	8b-\	-ju,
8r	8r	f	8r	.
=41	=41	=41	=41	=41
8B-`\L	8b-`/L	.	8b-/	bez
8A`\J	8a`/J	.	8a/	ma-
4B-`\	4b-`/	.	4b-/	-zu-
4G`\	4g`/	.	4g/	-ra
=42	=42	=42	=42	=42
8A`\L	8a`/L	.	8a/	Po-
8G`\J	8g`/J	.	8g/	-la-
4A`\	4a`/	.	4a/	-ko-
4F`\	4f`/	.	4f/	-wi
=43	=43	=43	=43	=43
8G`\L	8g`/L	.	8g/	źle
8F`\J	8f`/J	.	8f/	by-
4G`\	4g`/	.	4g/	-ło-
4E`\	4e`/	.	4en/	-by
!!LO:LB:g=original
=44	=44	=44	=44	=44
8F`\L	8f`/L	.	8f/	w sa-
8E`\J	8e`/J	.	8e/	-mym
4F`\	4f`/	.	4f/	ra-
4D`\	4d`/	.	8d/	-ju.
.	.	.	8r	.
=45	=45	=45	=45	=45
8AA`>\L 8C	8F<`>/L 8c	.	8c/	Hej-
8GG#`>\J 8BBn	8F<`>/J 8Bn	.	8Bn/	-że
4AA`>\ 4C	4F</ 4c	.	4c/	gra-
4AA\ 4C#X	4F</ 4c#X	.	4c#X/	-cko
=46	=46	=46	=46	=46
8BB-\L 8D	8F</L 8d	.	8d/	z miejs
8AA\J 8C#X	8F</J 8c#X	.	8cn/	pa-
4BB-\ 4D	4F</ 4d	.	4d/	-no-
4AA\ 4Cn	4F#X</ 4d	.	4d/	-wie,
=47	=47	=47	=47	=47
8BB-`/L 8D	(8G/L 8d	.	8d/	każ-
8AA`/J 8C	8e/J	.	8en/	-dy
4GG`/ 4BB-	4B-/) 4f	.	4f/	do
4BB-`/	4G`/ 4d 4g	.	4g/	swej
=48	=48	=48	=48	=48
*^	*	*	*	*
[2C/	4r	(>2A^/ 2c 2f	.	2f/	da-
.	4CC^/	.	.	.	.
4C^/]	4ryy	(8c/L) 8e	.	4e/	-my,
.	.	8B-/J	.	.	.
*v	*v	*	*	*	*
!!LO:PB:g=original
=49	=49	=49	=49	=49
!	!LO:TX:b:t=P:problem:brak zakończenia łuku	!	!	!
8D`\L 8F	8A`/L) 8f	.	8f/	boć
8C#X`\J 8E	8A`/J 8e	.	8e/	brzmi
4D`\ 4F	4A`/ 4f	.	4f/	nu-
4AA/ 4E-X	4c/ 4f#X	.	4f#X/	-ta
=50	=50	=50	=50	=50
.	8qa/	.	.	.
8BB-/L 8D	8d/L 8g	.	8g/	z du-
8AA/J 8C	8d/J 8f#X	.	8f#X/	-szy
4BB-/ 4D	4d/ 4g	.	4g/	snu-
4FF#X/ 4F#X	4d/ 4a	.	4a/	-ta
=51	=51	=51	=51	=51
(8GG/L 8G	(8d/L 8b-	.	8b-\	któ-
8A/J)	8cc/J)	.	8cc\	-rą
8G`\ 8B-	8g/ 8dd	.	4dd\	my
8r	8r	.	.	.
4F`\ 4B-	4g/ 4dd	.	4dd\	ko-
=52	=52	=52	=52	=52
*	*^	*	*	*
[2E;\ [2B-	(2dd;/	[2g\	.	2dd;\	-cha-
8E\] 8B-]	8cc/)	8g\]	.	8cc\	-my.
8r	8r	8ryy	.	8r	.
*	*v	*v	*	*	*
!!LO:LB:g=original
=53	=53	=53	=53	=53
!	!	!LO:DY:rj	!	!
8CC/L 8C	8c/L 8e 8cc	f	8cc\	Więc
8CC/J 8C	8c/J 8e 8cc	.	8cc\	og-
8DD/ 8C 8D	8c/ 8f 8bn	.	4bn\	-niś-
8r	8r	.	.	.
8EE/ 8C 8E	8c/ 8g 8b-X	.	4b-X\	-cie
8r	8r	.	.	.
=54	=54	=54	=54	=54
8FF/ 8C 8F	8c/ 8f 8a	.	8a/	za-
8r	8r	.	8a/	-ma-
8CC/ 8C	8B-/ 8e 8g	.	4g/	-szy-
8r	8r	.	.	.
8FF/ 8F	8A/ 8c 8f	.	4f/	-śćie
8r	8r	.	.	.
=55	=55	=55	=55	=55
*ped	*	*	*	*
8BBB-/ 8BB-	8.r	.	8.b-\	niech-
8ryy	.	.	.	.
.	16dd\	.	16dd\	-że
4D`;\ 4F 4B- 4d	(4.f;\ 4.b- 4.ff	.	4.ff;\	su-
*Xped	*	*	*	*
4DD`/ 4D	.	.	.	.
.	8b-\) 8dd	.	8dd\	-ną
=56	=56	=56	=56	=56
4FF/ 4F	(8a/L 8cc	.	2cc\	pa-
.	8f/J	.	.	.
4A`\ 4c	4a/ 4cc)	.	.	.
4C`\ 4G 4c	4e/ 4g 4cc	.	8cc\	-ry,
.	.	.	8r	.
!!LO:LB:g=original
=57	=57	=57	=57	=57
4FF`/ 4F	8.dd/L	.	8.dd\	Os-
.	16cc/Jk	.	16cc\	-tro,
4F`\ 4A 4c	4a^/	.	4a/	śmia-
((4AA/ 4A	4f/	.	4f/	-ło,
=58	=58	=58	=58	=58
*	*^	*	*	*
4BB-`/)) 4B-	(<8ee/L	4f\	.	8ee\	jak
.	8dd/J)	.	.	8dd\	przy-
4FF#X`/ 4F#X	4e-X/ 4a 4cc	4ryy	.	4cc\	-sta-
4GG`/ 4G	4d/ 4g 4b-	4ryy	.	4b-\	-ło
*	*v	*v	*	*	*
=59	=59	=59	=59	=59
!	!LO:TUP:a	!	!	!
4CC/ 4C	(12a\L	.	8a/	dla
.	12cc\	.	.	.
.	.	.	8a/	nas
.	12ff\J	.	.	.
8A\ 8c 8f	8aa\)	.	4.cc\	pols-
8r	8r	.	.	.
8C:\ 8G: 8B-: 8e:	8g:\ 8cc: 8gg:	.	.	.
8r	8r	.	16b-/LL	-kiej
.	.	.	16g/JJ	.
=60	=60	=60	=60	=60
8F\ 8A 8c	8f\ 8cc 8ff	.	8f/	wia-
8r	8r	.	8f/	-ry.
4FF/ 4C 4F	4ff^^\ 4aa 4ddd	.	4r	.
4r	4r	.	4r	.
.	.	ff	.	.
=61	=61	=61	=61	=61
8c`\L	8cc\L 8ccc	.	2.r	.
8Bn`\J	8bn\J 8bbn	.	.	.
4c`\	4cc`\ 4ccc	.	.	.
!	!	!	!	!
4A`\	4a`\ 4aa	.	.	.
!!LO:LB:g=original
=62	=62	=62	=62	=62
!	!	!	!	!
.	(8qb-/ 8qbb-	.	.	.
8A`\L	8a/L) 8aa	.	2.r	.
!	!	!	!	!
8G`\J	8g/J 8gg	.	.	.
!	!	!	!	!
4A`\	4a`/ 4aa	.	.	.
!	!LO:TX:b:t=dimi-nu-endo.:problem:dynamics with extention lines	!LO:HP:t=dimi-nu-endo.	!	!
4F`\	4f`/ 4ff	>	.	.
=63	=63	=63	=63	=63
!	!	!	!	!
.	(8qgg/	.	.	.
8F`\L	8f`/L) 8ff	.	2.r	.
!	!	!	!	!
8E`\J	8e`/J 8ee	.	.	.
!	!	!	!	!
4F`\	4f/ 4ff	.	.	.
4C\ 4c	4cc/	.	.	.
=64	=64	=64	=64	=64
!	!	!	!	!
.	(8qdd/	.	.	.
8C\L 8c	8cc`\L)	.	2.r	.
!	!	!	!	!
8BBn\J 8Bn	8bn`\J	]	.	.
!	!	!	!	!
4C\ 4c	4cc`\	.	.	.
4AA/ 4A	4a`/	.	.	.
=65	=65	=65	=65	=65
4FF/ 4F	4f/	.	2.r	.
4r	4r	.	.	.
4r	4r	f	.	.
=66	=66	=66	=66	=66
!	!	!	!	!
8AA\L 8C	8G<`>/L 8c	.	2.r	.
!	!	!	!	!
8GG#X\J 8BB	8F<`>/J 8Bn	.	.	.
!	!	!	!	!
4AA\ 4C	4F<`>/ 4c	.	.	.
!	!	!	!	!
4AA\ 4C	4F<`>/ 4c	.	.	.
=67	=67	=67	=67	=67
8FF^^/ 8C 8F	8f^^\ 8a 8ff	.	2.r	.
8r	8r	.	.	.
4r	4r	.	.	.
4r	4r	.	.	.
==	==	==	==	==
*-	*-	*-	*-	*-
!!!system-decoration: {s1<g1>}
!!!RDF**kern: > = above
!!!RDF**kern: < = below
!!!ENC: Marta Lawrence
!!!END: 2021-04-10
!!!ENC: Tomasz Grochalski
!!!END: 2021-03-27
